X: 76
T: 76. Freu dich sehr, o meine Seele
N: Derived from chor076.krn
C: Johann Sebastian Bach
%%abc-version 2.0
%%abcx-abcm2ps-target-version 5.9.1 (29 Sep 2008)
%%abc-creator hum2abc beta
%%abcx-conversion-date 2019/03/11 17:28:18
%%abc-edited-by Craig Stuart Sapp
%%humdrum-veritas 4232928759
%%humdrum-veritas-data 998103480
%%
%%barnumbers 0
L: 1/4
M: C
%%staves [1 2 3 4]
V: 1 clef=treble
V: 2 clef=treble
V: 3 clef=treble-8
V: 4 clef=bass
K: G
[V:1] GABA | 
[V:2] DDG^C | 
[V:3] Bdd/e/ e/f/ | 
[V:4] G,,F,,G,,A,, | 
[V:1] GFE2 | 
[V:2] D/E/ E/D/D^C | 
[V:3] B/A/ABA/G/ | 
[V:4] B,,/^C,/D,G,,A,, | 
[V:1] !fermata!D2GA | 
[V:2] !fermata!A,2EE/D/ | 
[V:3] !fermata!F2BA | 
[V:4] !fermata!D,,2E,,F,, | 
[V:1] BcBA | 
[V:2] DAA/G/ G/F/ | 
[V:3] A/G/ G/F/dd/c/ | 
[V:4] G,,A,,B,,/C,/D, | 
[V:1] !fermata!G4 :|]  
[V:2] !fermata!D4 :|]  
[V:3] !fermata!B4 :|]  
[V:4] !fermata!G,,4 :|]  
[V:1] Bcdc | 
[V:2] GG/=F/FE/^F/ | 
[V:3] dAA/^G/A | 
[V:4] G,,A,,B,,C,/D,/ | 
[V:1] BA!fermata!B2 | 
[V:2] ^GA/A,/!fermata!E2 | 
[V:3] E/ed/!fermata!^G2 | 
[V:4] E,=F,!fermata!E,2 | 
[V:1] dded | 
[V:2] DG/=F/E^F | 
[V:3] =G/A/BB/A/ A/B/ | 
[V:4] B,,/A,,/G,,C,D, | 
[V:1] cB!fermata!A2 | 
[V:2] G/DE/!fermata!F2 | 
[V:3] B/A/ B/^c/!fermata!d2 | 
[V:4] E,/F,/G,!fermata!D,2 | 
[V:1] B/c/dcB/A/ | 
[V:2] GAGF | 
[V:3] ddG/A/B | 
[V:4] G,G,/F,/E,^D, | 
[V:1] GAB2 | 
[V:2] F/E/ E/F/GF | 
[V:3] Bc/A/e3/^d/ | 
[V:4] E,/=D,/C,G,,/A,,/B,, | 
[V:1] !fermata!G2B/c/d | 
[V:2] !fermata!E2^GA/E/ | 
[V:3] !fermata!B2eA/B/ | 
[V:4] !fermata!E,,2E,,F,,/^G,,/ | 
[V:1] cBAB3//c// | 
[V:2] E/F/=GFG- | 
[V:3] cddd | 
[V:4] A,,B,,/C,/ D,/C,/ B,,/G,,/ | 
[V:1] A2!fermata!G2 |]  
[V:2] G/F//E//F!fermata!D2 |]  
[V:3] d3/c/!fermata!B2 |]  
[V:4] D,D,,!fermata!G,,2 |]  



